public/home/dao-it/visit.svg

<svg width="30" height="30" viewBox="0 0 30 30" fill="none" xmlns="http://www.w3.org/2000/svg">
<path d="M15.2547 0.540039C23.1721 0.540039 29.6133 6.98187 29.6133 14.9C29.6133 22.8182 23.1721 29.26 15.2547 29.26C7.33735 29.26 0.896154 22.8182 0.896154 14.9C0.896154 6.98187 7.33735 0.540039 15.2547 0.540039ZM15.2547 27.6305C22.2737 27.6305 27.9839 21.9197 27.9839 14.9C27.9839 7.88034 22.2737 2.16954 15.2547 2.16954C8.23572 2.16954 2.5255 7.88034 2.5255 14.9C2.5255 21.9197 8.23572 27.6305 15.2547 27.6305ZM9.02249 14.9C9.02249 15.1161 9.10832 15.3234 9.2611 15.4762C9.41388 15.629 9.6211 15.7148 9.83716 15.7148H18.7055L14.6787 19.7419C14.6009 19.8171 14.5389 19.907 14.4962 20.0064C14.4535 20.1058 14.431 20.2127 14.4301 20.3209C14.4291 20.429 14.4497 20.5363 14.4907 20.6365C14.5317 20.7366 14.5922 20.8276 14.6686 20.9041C14.7451 20.9806 14.8361 21.0411 14.9362 21.082C15.0363 21.123 15.1436 21.1436 15.2518 21.1427C15.36 21.1417 15.4669 21.1193 15.5663 21.0766C15.6656 21.0339 15.7555 20.9718 15.8307 20.894L21.2476 15.4765C21.2857 15.4383 21.3199 15.3965 21.3497 15.3516C21.3629 15.3319 21.3719 15.3103 21.3833 15.2897C21.3975 15.2638 21.413 15.2388 21.4244 15.2115C21.4356 15.1846 21.4419 15.1563 21.4501 15.1286C21.4568 15.1056 21.4658 15.0834 21.4707 15.0595C21.4916 14.9542 21.4916 14.8458 21.4707 14.7406C21.466 14.7165 21.457 14.6945 21.4503 14.6715C21.4421 14.6436 21.4356 14.6155 21.4244 14.5886C21.413 14.5611 21.3973 14.5363 21.3833 14.5104C21.3721 14.4896 21.3629 14.4682 21.3497 14.4485C21.3199 14.4036 21.2857 14.3617 21.2476 14.3236L15.8307 8.90611C15.7555 8.8283 15.6656 8.76623 15.5663 8.72353C15.4669 8.68083 15.36 8.65835 15.2518 8.65741C15.1436 8.65647 15.0363 8.67708 14.9362 8.71805C14.8361 8.75902 14.7451 8.81952 14.6686 8.89602C14.5922 8.97251 14.5317 9.06348 14.4907 9.16361C14.4497 9.26374 14.4291 9.37103 14.4301 9.47921C14.431 9.58739 14.4535 9.69431 14.4962 9.79371C14.5389 9.89311 14.6009 9.98301 14.6787 10.0582L18.7055 14.0853H9.83716C9.6211 14.0853 9.41388 14.1711 9.2611 14.3239C9.10832 14.4767 9.02249 14.684 9.02249 14.9Z" fill="white"/>
</svg>

<svg width="30" height="30" viewBox="0 0 30 30" fill="none" xmlns="http://www.w3.org/2000/svg"><path d="M15.255.54c7.917 0 14.358 6.442 14.358 14.36s-6.44 14.36-14.358 14.36S.896 22.818.896 14.9 7.337.54 15.255.54m0 27.09c7.019 0 12.729-5.71 12.729-12.73s-5.71-12.73-12.73-12.73C8.237 2.17 2.527 7.88 2.527 14.9s5.71 12.73 12.729 12.73M9.022 14.9a.815.815 0 0 0 .815.815h8.869l-4.027 4.027a.815.815 0 1 0 1.152 1.152l5.417-5.417a1 1 0 0 0 .102-.125q.018-.031.033-.062.023-.038.041-.079c.012-.026.018-.055.026-.082q.012-.034.02-.07a.8.8 0 0 0 0-.318q-.008-.035-.02-.07-.01-.041-.026-.082c-.011-.028-.027-.053-.04-.079l-.034-.062a1 1 0 0 0-.102-.124L15.83 8.906a.816.816 0 0 0-1.4.573.8.8 0 0 0 .248.58l4.027 4.026H9.837a.815.815 0 0 0-.815.815" fill="#fff"/></svg>
